apps/www/public/images/logos/publicity/archive/udio.svg

<svg width="73" height="29" viewBox="0 0 73 29" fill="none" xmlns="http://www.w3.org/2000/svg">
<path d="M34.4501 10.2516C33.1914 9.2669 31.4753 8.70197 29.6075 8.70197C24.3474 8.70197 20.5718 12.7858 20.5718 18.2714C20.5718 23.7573 24.3448 27.841 29.6075 27.841C31.5127 27.841 33.266 27.1969 34.5643 26.1384V27.4609H40.2823V0.000930786L34.4501 1.44126V10.2516ZM30.6373 22.6195C28.2346 22.6195 26.4812 20.8032 26.4812 18.2688C26.4812 15.7346 28.2346 13.9184 30.6745 13.9184C33.1144 13.9184 34.7906 15.695 34.7906 18.2688C34.7906 20.8428 33.1144 22.6195 30.6345 22.6195H30.6373Z" fill="#B4B4B4"/>
<path d="M49.5788 8.50064L43.7466 9.94099V27.4582H49.5788V8.50064Z" fill="#B4B4B4"/>
<path d="M46.6812 0.188339C44.8506 0.188339 43.5176 1.58747 43.5176 3.36674C43.5176 5.14603 44.8506 6.54516 46.6812 6.54516C48.5116 6.54516 49.8075 5.14603 49.8075 3.36674C49.8075 1.58747 48.5116 0.188339 46.6812 0.188339Z" fill="#B4B4B4"/>
<path d="M61.9376 8.6624C56.1428 8.6624 51.7979 12.7859 51.7979 18.232C51.7979 23.678 56.1826 27.8781 61.9376 27.8781C67.6928 27.8781 72.0775 23.7176 72.0775 18.232C72.0775 12.7463 67.6928 8.6624 61.9376 8.6624ZM61.9376 22.6195C59.4605 22.6195 57.7445 20.8428 57.7445 18.2689C57.7445 15.695 59.4605 13.9184 61.9376 13.9184C64.4147 13.9184 66.1309 15.6581 66.1309 18.2294C66.1309 20.8006 64.4547 22.6167 61.9376 22.6167V22.6195Z" fill="#B4B4B4"/>
<path d="M12.7441 19.668C12.7441 21.5978 11.6772 22.7328 9.92376 22.7328H6.26533V9.07681H0.433105V16.9436L6.26533 22.7328H0.433105L6.26533 28.5195V22.7328L11.3552 27.7829C15.6815 27.2207 18.5763 24.0819 18.5763 19.7076V9.07681H12.7441V19.668Z" fill="#B4B4B4"/>
</svg>

<svg xmlns="http://www.w3.org/2000/svg" width="73" height="29" fill="none" viewBox="0 0 73 29"><path fill="#b4b4b4" d="M34.45 10.252c-1.259-.985-2.975-1.55-4.843-1.55-5.26 0-9.035 4.084-9.035 9.57 0 5.485 3.773 9.569 9.036 9.569 1.905 0 3.658-.644 4.956-1.703v1.323h5.718V0L34.45 1.44zm-3.813 12.367c-2.402 0-4.156-1.816-4.156-4.35s1.754-4.35 4.193-4.35c2.44 0 4.117 1.776 4.117 4.35s-1.677 4.35-4.156 4.35zM49.579 8.5l-5.832 1.441v17.517h5.832zM46.681.188c-1.83 0-3.163 1.4-3.163 3.179s1.333 3.178 3.163 3.178 3.127-1.399 3.127-3.178c0-1.78-1.296-3.179-3.127-3.179M61.938 8.662c-5.795 0-10.14 4.124-10.14 9.57s4.385 9.646 10.14 9.646 10.14-4.16 10.14-9.646-4.385-9.57-10.14-9.57m0 13.957c-2.477 0-4.193-1.776-4.193-4.35s1.716-4.35 4.193-4.35 4.193 1.74 4.193 4.31c0 2.572-1.676 4.388-4.193 4.388zM12.744 19.668c0 1.93-1.067 3.065-2.82 3.065H6.265V9.077H.433v7.867l5.832 5.789H.433l5.832 5.787v-5.787l5.09 5.05c4.326-.562 7.221-3.701 7.221-8.075V9.077h-5.832z"/></svg>
